X:1
T:The 79th's Farewell to Gibraltar
C:Pipe Major John Macdonald
R:Pipe march
N:Hugh Stewart's suggested music for the dance "MacHinery's Reel" by Bill Kinsman.
S:Colin Hume's website,  colinhume.com  - chords can also be printed below the stave.
Q:1/2=112
M:2/2
L:1/8
%%MIDI ratio 3 1
K:A
P:A
|: cd | "A"e3f e2c2 | "F#m"A3B A2a2 | "A"f2ec "F#m"efae | "Bm"c2B2 "E7"B2cd |
"A"e3f e2c2 | "F#m"A3B A2a2 | "A"f2ec "E7"efae | "A"c2A2 A2 :|
P:B
|: a2 | "F#m"f2ec efae | "F#m"faec "E"B2a2 | "F#m"f2ec efae | "Bm"f2B2 "E"B2a2 |
"F#m"f2ec efae | "F#m"faec "E"B2a2 | "F#m"f2ec "E7"efae | "A"c2A2 A2 :|
P:C
|| cB | "A"A3B c2a2 | "F#m"f2ec "E"B2cB | "A"ABcd efec | "Bm"f2B2 "E"B2cB |
"A"A3B c2a2 | "F#m"f2ec "E"B2cB | "A"ABcd "E"efed | "A"c2A2 A2 ||
P:D
|| cd | "A"e3f e2c2 | "/"e3f e2ag | "D"f3g f2d2 | "D"f3g "E7"f2ag |
"F#m"f2ed "A"c2BA | "Bm"BABc "E"e2ag | "F#m"f2ec "E"efae | "A"c2A2 A2 |]

